assets/icons/qvision/local_parking.svg

<svg xmlns="http://www.w3.org/2000/svg" height="24" viewBox="0 0 24 24" width="24"><path d="M0 0h24v24H0z" fill="none"/><path d="M13 3H6v18h4v-6h3c3.31 0 6-2.69 6-6s-2.69-6-6-6zm.2 8H10V7h3.2c1.1 0 2 .9 2 2s-.9 2-2 2z"/></svg>

<svg width="24" height="24" viewBox="0 0 24 24" fill="none" xmlns="http://www.w3.org/2000/svg">
<g clip-path="url(#clip0_147_5430)">
<path d="M13 3H6V21H10V15H13C16.31 15 19 12.31 19 9C19 5.69 16.31 3 13 3ZM13.2 11H10V7H13.2C14.3 7 15.2 7.9 15.2 9C15.2 10.1 14.3 11 13.2 11Z" fill="#323232"/>
</g>
<defs>
<clipPath id="clip0_147_5430">
<rect width="24" height="24" fill="white"/>
</clipPath>
</defs>
</svg>
